X: 23828
T: Little One, So Young And Sweet
R: jig
M: 6/8
K: Fdorian
GFG A2 B|GEG F3|G2G GAB|FEE E3|
G2G GAB|GEG F3|GEF GAB|FEE E3||

